X: 923
T: The Redhaired Hag.
B:O'Neill's 923
N:"collected by F. O'Neill."
Z:Transcribed by Tom Keays (htkeays@mailbox.syr.edu)
Z:abc 1.6
M:6/8
R:Jig
L:1/8
K:A
f | ecA aeA | cde =gfg | BGG dGG | Bcd d2f | ecA aeA |
ecA aeA | cde fga | def =gdB | ecA A2 :|
|| e | agf ecA | cde fga | BGB dBG | Bcd d2 e |
agf ecA | cde a3 | def =gdB | ecA A2 :|


